rospo-dark/24x24/actions/xfpm-brightness-lcd.svg

<svg height="24" viewBox="0 0 24 24" width="24" xmlns="http://www.w3.org/2000/svg"><path d="m11.996094 4.71875.001953.0019531.001953-.0019531zm.001953.0019531c-.767262.7571895-1.514988 1.5354321-2.294922 2.2792969h-2.703125v2.703125c-.7446.7806-1.52335 1.528875-2.28125 2.296875.7579.76805 1.5367 1.516175 2.28125 2.296875v2.703125h2.703125c.7806.7446 1.528875 1.52335 2.296875 2.28125.76805-.7579 1.516175-1.5367 2.296875-2.28125h2.703125v-2.703125c.7446-.7806 1.52335-1.528875 2.28125-2.296875-.7579-.76805-1.5367-1.516175-2.28125-2.296875v-2.703125h-2.703125c-.784331-.7438653-1.529527-1.5219082-2.298828-2.2792969zm.001953 2.7792969c2.4853 0 4.5 2.0147 4.5 4.5s-2.0147 4.5-4.5 4.5-4.5-2.0147-4.5-4.5 2.0147-4.5 4.5-4.5zm0 1.5c-1.65685 0-3 1.34315-3 3s1.34315 3 3 3z" fill="#d3dae3"/></svg>

<svg xmlns="http://www.w3.org/2000/svg" width="24" height="24" viewBox="0 0 24 24">
 <defs>
  <style id="current-color-scheme" type="text/css">
   .ColorScheme-Text { color:#d3dae3; } .ColorScheme-Highlight { color:#5294e2; }
  </style>
 </defs>
 <path style="fill:currentColor" class="ColorScheme-Text" d="M 11.996094 4.71875 L 11.998047 4.7207031 L 12 4.71875 L 11.996094 4.71875 z M 11.998047 4.7207031 C 11.230785 5.4778926 10.483059 6.2561352 9.703125 7 L 7 7 L 7 9.703125 C 6.2554 10.483725 5.47665 11.232 4.71875 12 C 5.47665 12.76805 6.25545 13.516175 7 14.296875 L 7 17 L 9.703125 17 C 10.483725 17.7446 11.232 18.52335 12 19.28125 C 12.76805 18.52335 13.516175 17.74455 14.296875 17 L 17 17 L 17 14.296875 C 17.7446 13.516275 18.52335 12.768 19.28125 12 C 18.52335 11.23195 17.74455 10.483825 17 9.703125 L 17 7 L 14.296875 7 C 13.512544 6.2561347 12.767348 5.4780918 11.998047 4.7207031 z M 12 7.5 C 14.4853 7.5 16.5 9.5147 16.5 12 C 16.5 14.4853 14.4853 16.5 12 16.5 C 9.5147 16.5 7.5 14.4853 7.5 12 C 7.5 9.5147 9.5147 7.5 12 7.5 z M 12 9 C 10.34315 9 9 10.34315 9 12 C 9 13.65685 10.34315 15 12 15 L 12 9 z"/>
</svg>
